!!!OTL: Jinnian youshige fengshou nian
!!!ARE: Asia, China,ÿNingxia Yanchi
!! I, 161 
!!!SCT: C1829
!!!YEM: Copyright 1995, estate of Helmut Schaffrath.
**kern
*ICvox
*Ivox
!! Mixed meters:  2/4; 3/4
*M3/4
*k[f#c#]
*D:
{8ee
8ff#
8ee
16dd
16dd
=1
8ee
8ff#
4.ee
8aa
=2
*M2/4
8.b
16dd
8b
8a
=3
2ee}
=4
{8a
8b
8dd
8dd
=5
8dd
8ee
8b
8a
=6
8.a
16dd
8b
8a
=7
2a}
==
!!!AGN: Shange, Xintianyou
!! Han
!!!ONB: ESAC (Essen Associative Code) Database: SENGANSU
!!!AMT: irregular
!!!AIN: vox
!!!EED: Helmut Schaffrath
!!!EEV: 1.0
*-
